;FLAVOR:Marlin
;TIME:20847
;Filament used: 17.3392m
;Layer height: 0.16
;MINX:37.935
;MINY:14.179
;MINZ:0.24
;MAXX:182.068
;MAXY:205.821
;MAXZ:4.19
;Generated with Cura_SteamEngine 4.8.0
M140 S60
M105
M190 S60
M104 S210
M105
M109 S210
M82 ;absolute extrusion mode
; Ender 3 Custom Start G-code
G92 E0 ; Reset Extruder
G28 ; Home all axes
G1 Z2.0 F3000 ; Move Z Axis up little to prevent scratching of Heat Bed
G1 X0.1 Y20 Z0.3 F5000.0 ; Move to start position
G1 X0.1 Y200.0 Z0.3 F1500.0 E15 ; Draw the first line
G1 X0.4 Y200.0 Z0.3 F5000.0 ; Move to side a little
G1 X0.4 Y20 Z0.3 F1500.0 E30 ; Draw the second line
G92 E0 ; Reset Extruder
G1 Z2.0 F3000 ; Move Z Axis up little to prevent scratching of Heat Bed
G1 X5 Y20 Z0.3 F5000.0 ; Move over to prevent blob squish
G92 E0
G92 E0
G1 F1500 E-6
;LAYER_COUNT:20
;LAYER:-6
M107
G0 F9000 X40.828 Y22.761 Z0.24
;TYPE:SUPPORT-INTERFACE
G1 F1500 E0
G1 F1350 X40.895 Y22.644 E0.01076
G1 X41.369 Y21.865 E0.08355
G1 X41.469 Y21.714 E0.09801
G1 X41.98 Y21 E0.1681
G1 X42.093 Y20.852 E0.18296
G1 X42.669 Y20.161 E0.25477
G1 X42.77 Y20.048 E0.26687
G1 X43.395 Y19.399 E0.33879
G1 X43.52 Y19.279 E0.35262
G1 X44.191 Y18.676 E0.42463
G1 X44.307 Y18.58 E0.43665
G1 X45.019 Y18.03 E0.50847
G1 X45.178 Y17.917 E0.52404
G1 X45.916 Y17.427 E0.59475
G1 X46.042 Y17.351 E0.6065
G1 X46.836 Y16.905 E0.6792
G1 X46.986 Y16.827 E0.69269
G1 X47.801 Y16.444 E0.76457
G1 X47.944 Y16.384 E0.77695
G1 X48.803 Y16.055 E0.85038
G1 X48.953 Y16.003 E0.86305
G1 X49.803 Y15.748 E0.93389
G1 X49.976 Y15.701 E0.9482
G1 X50.871 Y15.501 E1.0214
G1 X51.001 Y15.478 E1.03194
G1 X51.906 Y15.344 E1.10497
G1 X52.075 Y15.326 E1.11854
G1 X52.964 Y15.26 E1.1897
G1 X53.148 Y15.251 E1.2044
G1 X53.653 Y15.243 E1.24472
G1 X73.596 Y15.244 E2.83666
G1 X74.597 Y15.28 E2.91661
G1 X74.72 Y15.289 E2.92646
G1 X75.637 Y15.391 E3.00011
G1 X75.812 Y15.416 E3.01422
G1 X76.671 Y15.575 E3.08395
G1 X76.846 Y15.615 E3.09828
G1 X78.156 Y15.974 E3.20671
G1 X170.826 Y46.084 E10.9847
G1 X170.99 Y46.141 E10.99856
G1 X171.85 Y46.455 E11.07164
G1 X171.996 Y46.514 E11.08421
G1 X172.807 Y46.882 E11.1553
G1 X172.965 Y46.96 E11.16937
G1 X173.778 Y47.4 E11.24316
G1 X173.886 Y47.465 E11.25322
G1 X174.656 Y47.959 E11.32625
G1 X174.783 Y48.046 E11.33854
G1 X175.508 Y48.588 E11.41079
G1 X175.639 Y48.694 E11.42425
G1 X176.316 Y49.283 E11.49588
G1 X176.447 Y49.405 E11.51017
G1 X177.068 Y50.03 E11.5805
G1 X177.192 Y50.165 E11.59513
G1 X177.775 Y50.844 E11.66657
G1 X177.882 Y50.978 E11.68026
G1 X178.397 Y51.676 E11.7495
G1 X178.524 Y51.862 E11.76747
G1 X178.981 Y52.587 E11.83589
G1 X179.075 Y52.749 E11.85084
G1 X179.486 Y53.52 E11.92058
G1 X179.565 Y53.682 E11.93497
G1 X179.928 Y54.5 E12.0064
G1 X179.991 Y54.657 E12.01991
G1 X180.305 Y55.534 E12.09426
G1 X180.34 Y55.642 E12.10333
G1 X180.583 Y56.519 E12.17597
G1 X180.624 Y56.69 E12.19001
G1 X180.8 Y57.564 E12.26117
G1 X180.829 Y57.744 E12.27573
G1 X180.937 Y58.613 E12.34563
G1 X180.953 Y58.799 E12.36053
G1 X181.004 Y59.932 E12.45106
G1 X181.007 Y60.07 E12.46208
G1 X181.007 Y159.986 E20.43781
G1 X180.971 Y160.992 E20.51816
G1 X180.961 Y161.127 E20.52897
G1 X180.859 Y162.044 E20.60262
G1 X180.834 Y162.219 E20.61673
G1 X180.672 Y163.097 E20.688
G1 X180.642 Y163.231 E20.69896
G1 X180.411 Y164.116 E20.77197
G1 X180.359 Y164.288 E20.78632
G1 X180.073 Y165.13 E20.8573
G1 X180.009 Y165.296 E20.8715
G1 X179.668 Y166.099 E20.94114
G1 X179.587 Y166.274 E20.95653
G1 X179.172 Y167.082 E21.02904
G1 X179.105 Y167.199 E21.0398
G1 X178.631 Y167.978 E21.11259
G1 X178.531 Y168.129 E21.12705
G1 X178.02 Y168.843 E21.19714
G1 X177.907 Y168.991 E21.212
G1 X177.331 Y169.682 E21.28381
G1 X177.23 Y169.795 E21.29591
G1 X176.605 Y170.444 E21.36783
G1 X176.48 Y170.564 E21.38166
G1 X175.81 Y171.166 E21.45356
G1 X175.693 Y171.263 E21.4657
G1 X174.981 Y171.813 E21.53751
G1 X174.822 Y171.926 E21.55308
G1 X174.084 Y172.416 E21.6238
G1 X173.958 Y172.492 E21.63554
G1 X173.164 Y172.938 E21.70824
G1 X173.013 Y173.016 E21.7218
G1 X172.187 Y173.404 E21.79465
G1 X172.059 Y173.458 E21.80574
G1 X170.955 Y173.871 E21.89983
G1 X170.84 Y173.911 E21.90955
G1 X78.181 Y204.018 E29.68664
G1 X78.072 Y204.051 E29.69573
G1 X77.154 Y204.313 E29.77193
G1 X76.992 Y204.352 E29.78523
G1 X76.107 Y204.536 E29.85739
G1 X75.966 Y204.56 E29.8688
G1 X75.068 Y204.678 E29.9411
G1 X74.893 Y204.694 E29.95513
G1 X73.626 Y204.755 E30.05639
G1 X73.538 Y204.757 E30.06341
G1 X53.59 Y204.756 E31.65575
G1 X52.589 Y204.72 E31.7357
G1 X52.466 Y204.711 E31.74555
G1 X51.549 Y204.609 E31.8192
G1 X51.374 Y204.584 E31.83331
G1 X50.485 Y204.42 E31.90547
G1 X50.362 Y204.392 E31.91554
G1 X49.468 Y204.158 E31.98931
G1 X49.305 Y204.109 E32.00289
G1 X48.463 Y203.823 E32.07388
G1 X48.297 Y203.759 E32.08808
G1 X47.494 Y203.418 E32.15772
G1 X47.305 Y203.33 E32.17436
G1 X46.511 Y202.922 E32.24562
G1 X46.394 Y202.855 E32.25638
G1 X45.615 Y202.381 E32.32917
G1 X45.464 Y202.281 E32.34363
G1 X44.75 Y201.77 E32.41371
G1 X44.602 Y201.657 E32.42858
G1 X43.911 Y201.081 E32.50039
G1 X43.798 Y200.98 E32.51249
G1 X43.149 Y200.355 E32.58441
G1 X43.029 Y200.23 E32.59824
G1 X42.426 Y199.559 E32.67025
G1 X42.329 Y199.441 E32.68245
G1 X41.771 Y198.719 E32.75529
G1 X41.667 Y198.572 E32.76966
G1 X41.174 Y197.829 E32.84084
G1 X41.101 Y197.708 E32.85212
G1 X40.649 Y196.903 E32.92581
G1 X40.577 Y196.764 E32.93831
G1 X40.194 Y195.948 E33.01026
G1 X40.129 Y195.794 E33.02361
G1 X39.805 Y194.947 E33.096
G1 X39.748 Y194.782 E33.10993
G1 X39.498 Y193.947 E33.17951
G1 X39.451 Y193.774 E33.19382
G1 X39.25 Y192.873 E33.26751
G1 X39.228 Y192.749 E33.27756
G1 X39.093 Y191.835 E33.35131
G1 X39.076 Y191.675 E33.36415
G1 X39.01 Y190.783 E33.43555
G1 X39.001 Y190.602 E33.45002
G1 X38.993 Y190.101 E33.49002
G1 X38.993 Y29.857 E46.28138
G1 X39.029 Y28.851 E46.36174
G1 X39.039 Y28.716 E46.37254
G1 X39.141 Y27.799 E46.44619
G1 X39.166 Y27.624 E46.46031
G1 X39.328 Y26.746 E46.53157
G1 X39.358 Y26.612 E46.54254
G1 X39.589 Y25.727 E46.61555
G1 X39.641 Y25.555 E46.62989
G1 X39.927 Y24.713 E46.70087
G1 X39.991 Y24.547 E46.71508
G1 X40.332 Y23.744 E46.78472
G1 X40.413 Y23.569 E46.80011
G1 X40.828 Y22.761 E46.87262
G0 F9000 X41.6 Y21.53
G1 F1350 X41.6 Y198.471 E60.99681
G0 F9000 X43.2 Y200.404
G1 F1350 X43.2 Y19.601 E75.42929
G0 F9000 X44.8 Y18.199
G1 F1350 X44.8 Y201.805 E90.08551
G0 F9000 X46.4 Y202.858
G1 F1350 X46.4 Y17.149 E104.90961
G0 F9000 X48 Y16.362
G1 F1350 X48 Y203.632 E119.85831
G0 F9000 X49.6 Y204.192
G1 F1350 X49.6 Y15.808 E134.89594
G0 F9000 X51.2 Y15.448
G1 F1350 X51.2 Y204.551 E149.99096
G0 F9000 X52.8 Y204.727
G1 F1350 X52.8 Y15.272 E165.11407
G0 F9000 X54.4 Y15.244
G1 F1350 X54.4 Y204.756 E180.24174
G0 F9000 X56 Y204.756
G1 F1350 X56 Y15.244 E195.36941
G0 F9000 X57.6 Y15.244
G1 F1350 X57.6 Y204.756 E210.49707
G0 F9000 X59.2 Y204.756
G1 F1350 X59.2 Y15.244 E225.62474
G0 F9000 X60.8 Y15.244
G1 F1350 X60.8 Y204.756 E240.75241
G0 F9000 X62.4 Y204.756
G1 F1350 X62.4 Y15.244 E255.88008
G0 F9000 X64 Y15.244
G1 F1350 X64 Y204.756 E271.00774
G0 F9000 X65.6 Y204.756
G1 F1350 X65.6 Y15.244 E286.13541
G0 F9000 X67.2 Y15.244
G1 F1350 X67.2 Y204.756 E301.26308
G0 F9000 X68.8 Y204.756
G1 F1350 X68.8 Y15.244 E316.39075
G0 F9000 X70.4 Y15.244
G1 F1350 X70.4 Y204.756 E331.51841
G0 F9000 X72 Y204.756
G1 F1350 X72 Y15.244 E346.64608
G0 F9000 X73.6 Y15.245
G1 F1350 X73.6 Y204.756 E361.77367
G0 F9000 X75.2 Y204.661
G1 F1350 X75.2 Y15.343 E376.88585
G0 F9000 X76.8 Y15.605
G1 F1350 X76.8 Y204.392 E391.95564
G0 F9000 X78.4 Y203.947
G1 F1350 X78.4 Y16.054 E406.95408
G0 F9000 X80 Y16.574
G1 F1350 X80 Y203.427 E421.86949
G0 F9000 X81.6 Y202.908
G1 F1350 X81.6 Y17.094 E436.70197
G0 F9000 X83.2 Y17.613
G1 F1350 X83.2 Y202.388 E451.45151
G0 F9000 X84.8 Y201.868
G1 F1350 X84.8 Y18.133 E466.11803
G0 F9000 X86.4 Y18.653
G1 F1350 X86.4 Y201.348 E480.70153
G0 F9000 X88 Y200.828
G1 F1350 X88 Y19.173 E495.20202
G0 F9000 X89.6 Y19.693
G1 F1350 X89.6 Y200.308 E509.61949
G0 F9000 X91.2 Y199.788
G1 F1350 X91.2 Y20.213 E523.95394
G0 F9000 X92.8 Y20.733
G1 F1350 X92.8 Y199.268 E538.20538
G0 F9000 X94.4 Y198.749
G1 F1350 X94.4 Y21.252 E552.37396
G0 F9000 X96 Y21.772
G1 F1350 X96 Y198.229 E566.45952
G0 F9000 X97.6 Y197.709
G1 F1350 X97.6 Y22.292 E580.46206
G0 F9000 X99.2 Y22.812
G1 F1350 X99.2 Y197.189 E594.38159
G0 F9000 X100.8 Y196.669
G1 F1350 X100.8 Y23.332 E608.2181
G0 F9000 X102.4 Y23.852
G1 F1350 X102.4 Y196.149 E621.97159
G0 F9000 X104 Y195.629
G1 F1350 X104 Y24.372 E635.64206
G0 F9000 X105.6 Y24.892
G1 F1350 X105.6 Y195.109 E649.22952
G0 F9000 X107.2 Y194.59
G1 F1350 X107.2 Y25.411 E662.73412
G0 F9000 X108.8 Y25.931
G1 F1350 X108.8 Y194.07 E676.1557
G0 F9000 X110.4 Y193.55
G1 F1350 X110.4 Y26.451 E689.49427
G0 F9000 X112 Y26.971
G1 F1350 X112 Y193.03 E702.74981
G0 F9000 X113.6 Y192.51
G1 F1350 X113.6 Y27.491 E715.92234
G0 F9000 X115.2 Y28.011
G1 F1350 X115.2 Y191.99 E729.01186
G0 F9000 X116.8 Y191.47
G1 F1350 X116.8 Y28.531 E742.01835
G0 F9000 X118.4 Y29.05
G1 F1350 X118.4 Y190.95 E754.94191
G0 F9000 X120 Y190.431
G1 F1350 X120 Y29.57 E767.78253
G0 F9000 X121.6 Y30.09
G1 F1350 X121.6 Y189.911 E780.54013
G0 F9000 X123.2 Y189.391
G1 F1350 X123.2 Y30.61 E793.21472
G0 F9000 X124.8 Y31.13
G1 F1350 X124.8 Y188.871 E805.80629
G0 F9000 X126.4 Y188.351
G1 F1350 X126.4 Y31.65 E818.31484
G0 F9000 X128 Y32.17
G1 F1350 X128 Y187.831 E830.74037
G0 F9000 X129.6 Y187.311
G1 F1350 X129.6 Y32.689 E843.08297
G0 F9000 X131.2 Y33.209
G1 F1350 X131.2 Y186.791 E855.34255
G0 F9000 X132.8 Y186.272
G1 F1350 X132.8 Y33.729 E867.51919
G0 F9000 X134.4 Y34.249
G1 F1350 X134.4 Y185.752 E879.61282
G0 F9000 X136 Y185.232
G1 F1350 X136 Y34.769 E891.62342
G0 F9000 X137.6 Y35.289
G1 F1350 X137.6 Y184.712 E903.55101
G0 F9000 X139.2 Y184.192
G1 F1350 X139.2 Y35.809 E915.39559
G0 F9000 X140.8 Y36.329
G1 F1350 X140.8 Y183.672 E927.15714
G0 F9000 X142.4 Y183.152
G1 F1350 X142.4 Y36.848 E938.83576
G0 F9000 X144 Y37.368
G1 F1350 X144 Y182.632 E950.43136
G0 F9000 X145.6 Y182.113
G1 F1350 X145.6 Y37.888 E961.94402
G0 F9000 X147.2 Y38.408
G1 F1350 X147.2 Y181.593 E973.37367
G0 F9000 X148.8 Y181.073
G1 F1350 X148.8 Y38.928 E984.7203
G0 F9000 X150.4 Y39.448
G1 F1350 X150.4 Y180.553 E995.98391
G0 F9000 X152 Y180.033
G1 F1350 X152 Y39.968 E1007.1645
G0 F9000 X153.6 Y40.487
G1 F1350 X153.6 Y179.513 E1018.26216
G0 F9000 X155.2 Y178.993
G1 F1350 X155.2 Y41.007 E1029.2768
G0 F9000 X156.8 Y41.527
G1 F1350 X156.8 Y178.473 E1040.20842
G0 F9000 X158.4 Y177.954
G1 F1350 X158.4 Y42.047 E1051.05711
G0 F9000 X160 Y42.567
G1 F1350 X160 Y177.434 E1061.82277
G0 F9000 X161.6 Y176.914
G1 F1350 X161.6 Y43.087 E1072.50542
G0 F9000 X163.2 Y43.607
G1 F1350 X163.2 Y176.394 E1083.10506
G0 F9000 X164.8 Y175.874
G1 F1350 X164.8 Y44.127 E1093.62167
G0 F9000 X166.4 Y44.646
G1 F1350 X166.4 Y175.354 E1104.05535
G0 F9000 X168 Y174.834
G1 F1350 X168 Y45.166 E1114.40601
G0 F9000 X169.6 Y45.686
G1 F1350 X169.6 Y174.314 E1124.67365
G0 F9000 X171.2 Y173.78
G1 F1350 X171.2 Y46.218 E1134.8562
G0 F9000 X172.8 Y46.879
G1 F1350 X172.8 Y173.117 E1144.93307
G0 F9000 X174.4 Y172.207
G1 F1350 X174.4 Y47.795 E1154.86417
G0 F9000 X176 Y49.009
G1 F1350 X176 Y170.996 E1164.6017
G0 F9000 X177.6 Y169.36
G1 F1350 X177.6 Y50.641 E1174.07836
G0 F9000 X179.2 Y52.984
G1 F1350 X179.2 Y167.028 E1183.18185
G1 F1500 E1177.18185
G0 F9000 X180.539 Y166.749
G0 X181.076 Y165.485
G0 X181.177 Y165.181
G0 X181.713 Y163.316
G0 X180.8 Y162.404
G1 F1500 E1183.18185
G1 F1350 X180.8 Y57.564 E1191.55063
G1 F1500 E1185.55063
G0 F9000 X181.843 Y57.355
G0 X181.362 Y55.346
G0 X180.906 Y54.08
G0 X180.001 Y52.225
G0 X179.269 Y51.065
G0 X177.983 Y49.453
G0 X177.033 Y48.496
G0 X175.411 Y47.186
G0 X174.296 Y46.471
G0 X172.416 Y45.537
G0 X171.167 Y45.076
G0 X78.374 Y14.929
G0 X76.888 Y14.533
G0 X74.824 Y14.23
G0 X73.58 Y14.179
G0 X52.903 Y14.197
G0 X50.835 Y14.426
G0 X49.52 Y14.722
G0 X47.554 Y15.393
G0 X46.336 Y15.965
G0 X44.57 Y17.044
G0 X43.49 Y17.875
G0 X41.985 Y19.329
G0 X41.127 Y20.362
G0 X39.98 Y22.1
G0 X39.805 Y22.441
G0 X39.02 Y24.11
G0 X40 Y24.525
G1 F1500 E1191.55063
G1 F1350 X40 Y195.456 E1205.19508
G0 F300 X40 Y195.456 Z0.48
G0 F9000 X41.876 Y198.854
;TIME_ELAPSED:689.747923
;LAYER:-5
;TYPE:SUPPORT
G1 F1350 X44.894 Y201.871 E1205.53572
G1 X44.749 Y201.768 E1205.54992
G1 X44.602 Y201.656 E1205.56467
G1 X43.911 Y201.079 E1205.63653
G1 X43.798 Y200.979 E1205.64858
G1 X43.149 Y200.354 E1205.7205
G1 X43.029 Y200.229 E1205.73433
G1 X42.426 Y199.558 E1205.80634
G1 X42.329 Y199.44 E1205.81854
G1 F1500 E1199.81854
G0 F9000 X41.625 Y200.26
G0 X42.802 Y201.478
G0 X43.945 Y202.495
G0 X44.894 Y201.871
G1 F1500 E1205.81854
G1 F1350 X45.464 Y202.28 E1205.87454
G1 X45.614 Y202.38 E1205.88893
G1 X46.393 Y202.854 E1205.96172
G1 X46.51 Y202.921 E1205.97248
G1 X47.304 Y203.329 E1206.04374
G1 X47.494 Y203.416 E1206.06042
G1 X48.119 Y203.682 E1206.11464
G1 X40.066 Y195.63 E1207.02368
G1 X39.805 Y194.945 E1207.08219
G1 X39.747 Y194.781 E1207.09608
G1 X39.498 Y193.945 E1207.16571
G1 X39.45 Y193.772 E1207.18004
G1 X39.401 Y193.55 E1207.19819
G1 X50.198 Y204.348 E1208.4171
G1 X50.362 Y204.391 E1208.43064
G1 X50.485 Y204.419 E1208.44071
G1 X51.374 Y204.582 E1208.51285
G1 X51.549 Y204.608 E1208.52697
G1 X51.913 Y204.648 E1208.55621
G1 X39.092 Y191.827 E1210.00355
G1 X39.076 Y191.674 E1210.01583
G1 X39.01 Y190.782 E1210.08723
G1 X39 Y190.601 E1210.1017
G1 X38.995 Y190.316 E1210.12445
G1 X53.428 Y204.749 E1211.75377
G1 X53.59 Y204.755 E1211.76671
G1 X54.848 Y204.755 E1211.86713
G1 X38.992 Y188.899 E1213.6571
G1 X38.992 Y187.485 E1213.76997
G1 X56.263 Y204.755 E1215.71961
G1 X57.677 Y204.755 E1215.83248
G1 X38.992 Y186.07 E1217.94181
G1 X38.992 Y184.656 E1218.05468
G1 X59.091 Y204.755 E1220.32363
G1 X60.505 Y204.755 E1220.4365
G1 X38.992 Y183.242 E1222.86507
G1 X38.992 Y181.828 E1222.97794
G1 X61.919 Y204.755 E1225.56614
G1 X63.334 Y204.755 E1225.67909
G1 X38.992 Y180.414 E1228.42697
G1 X38.992 Y178.999 E1228.53992
G1 X64.748 Y204.755 E1231.44748
G1 X66.162 Y204.755 E1231.56035
G1 X38.992 Y177.585 E1234.62754
G1 X38.992 Y176.171 E1234.74041
G1 X67.576 Y204.755 E1237.96722
G1 X68.99 Y204.755 E1238.08009
G1 X38.992 Y174.757 E1241.46652
G1 X38.992 Y173.342 E1241.57948
G1 X70.405 Y204.755 E1245.12565
G1 X71.819 Y204.755 E1245.23852
G1 X38.992 Y171.928 E1248.94431
G1 X38.992 Y170.514 E1249.05719
G1 X73.233 Y204.755 E1252.92261
G1 X73.538 Y204.756 E1252.94695
G1 X73.626 Y204.754 E1252.95398
G1 X74.599 Y204.707 E1253.03174
G1 X38.992 Y169.1 E1257.05136
G1 X38.992 Y167.686 E1257.16424
G1 X75.876 Y204.57 E1261.32802
G1 X75.965 Y204.558 E1261.33519
G1 X76.106 Y204.535 E1261.34659
G1 X76.991 Y204.351 E1261.41875
G1 X77.056 Y204.335 E1261.42409
G1 X38.992 Y166.271 E1265.72108
G1 X38.992 Y164.857 E1265.83396
G1 X78.158 Y204.023 E1270.25535
G1 X78.18 Y204.017 E1270.25717
G1 X79.226 Y203.677 E1270.34497
G1 X38.992 Y163.443 E1274.88693
G1 X38.992 Y162.029 E1274.9998
G1 X80.293 Y203.329 E1279.66216
G1 X81.361 Y202.983 E1279.75178
G1 X38.992 Y160.615 E1284.5347
G1 X38.992 Y159.2 E1284.64765
G1 X82.428 Y202.636 E1289.55108
G1 X83.495 Y202.289 E1289.64064
G1 X38.992 Y157.786 E1294.66453
G1 X38.992 Y156.372 E1294.7774
G1 X84.562 Y201.942 E1299.92173
G1 X85.63 Y201.596 E1300.01135
G1 X38.992 Y154.958 E1305.27625
G1 X38.992 Y153.543 E1305.3892
G1 X86.697 Y201.248 E1310.77455
G1 X87.765 Y200.902 E1310.86417
G1 X38.992 Y152.129 E1316.37009
G1 X38.992 Y150.715 E1316.48296
G1 X88.833 Y200.555 E1322.10938
G1 X89.9 Y200.208 E1322.19895
G1 X38.992 Y149.301 E1327.94583
G1 X38.992 Y147.887 E1328.0587
G1 X90.967 Y199.862 E1333.92608
G1 X92.034 Y199.515 E1334.01565
G1 X38.992 Y146.472 E1340.00354
G1 X38.992 Y145.058 E1340.11641
G1 X93.102 Y199.168 E1346.22482
G1 X94.169 Y198.821 E1346.31438
G1 X38.992 Y143.644 E1352.54324
G1 X38.992 Y142.23 E1352.65611
G1 X95.237 Y198.474 E1359.00548
G1 X96.304 Y198.127 E1359.09504
G1 X38.992 Y140.816 E1365.56486
G1 X38.992 Y139.401 E1365.67781
G1 X97.372 Y197.781 E1372.26825
G1 X98.439 Y197.434 E1372.35781
G1 X38.992 Y137.987 E1379.0687
G1 X38.992 Y136.573 E1379.18157
G1 X99.506 Y197.087 E1386.01292
G1 X100.573 Y196.74 E1386.10248
G1 X38.992 Y135.159 E1393.05428
G1 X38.992 Y133.745 E1393.16715
