;FLAVOR:Marlin
;TIME:45142
;Filament used: 29.735m
;Layer height: 0.16
;MINX:44.335
;MINY:44.335
;MINZ:0.24
;MAXX:175.665
;MAXY:175.664
;MAXZ:234.91
;Generated with Cura_SteamEngine 4.8.0
M140 S60
M105
M190 S60
M104 S210
M105
M109 S210
M82 ;absolute extrusion mode
; Ender 3 Custom Start G-code
G92 E0 ; Reset Extruder
G28 ; Home all axes
G1 Z2.0 F3000 ; Move Z Axis up little to prevent scratching of Heat Bed
G1 X0.1 Y20 Z0.3 F5000.0 ; Move to start position
G1 X0.1 Y200.0 Z0.3 F1500.0 E15 ; Draw the first line
G1 X0.4 Y200.0 Z0.3 F5000.0 ; Move to side a little
G1 X0.4 Y20 Z0.3 F1500.0 E30 ; Draw the second line
G92 E0 ; Reset Extruder
G1 Z2.0 F3000 ; Move Z Axis up little to prevent scratching of Heat Bed
G1 X5 Y20 Z0.3 F5000.0 ; Move over to prevent blob squish
G92 E0
G92 E0
G1 F1500 E-6
;LAYER_COUNT:1462
;LAYER:-6
M107
G0 F9000 X49.802 Y49.556 Z0.24
;TYPE:SUPPORT-INTERFACE
G1 F1500 E0
G1 F1350 X49.927 Y49.436 E0.01383
G1 X50.598 Y48.833 E0.08584
G1 X50.714 Y48.737 E0.09786
G1 X51.426 Y48.187 E0.16968
G1 X51.585 Y48.074 E0.18525
G1 X52.323 Y47.584 E0.25596
G1 X52.449 Y47.508 E0.26771
G1 X53.243 Y47.062 E0.34041
G1 X53.393 Y46.984 E0.3539
G1 X54.208 Y46.601 E0.42578
G1 X54.351 Y46.541 E0.43816
G1 X55.21 Y46.212 E0.51159
G1 X55.36 Y46.16 E0.52426
G1 X56.21 Y45.905 E0.5951
G1 X56.383 Y45.858 E0.60941
G1 X57.278 Y45.658 E0.68261
G1 X57.408 Y45.635 E0.69315
G1 X58.313 Y45.501 E0.76618
G1 X58.482 Y45.483 E0.77975
G1 X59.371 Y45.417 E0.85091
G1 X59.555 Y45.408 E0.86561
G1 X60.06 Y45.4 E0.90593
G1 X160.003 Y45.401 E8.88381
G1 X161.004 Y45.437 E8.96377
G1 X161.127 Y45.446 E8.97361
G1 X162.044 Y45.548 E9.04726
G1 X162.219 Y45.573 E9.06137
G1 X163.108 Y45.737 E9.13353
G1 X163.231 Y45.765 E9.1436
G1 X164.125 Y45.999 E9.21737
G1 X164.288 Y46.048 E9.23096
G1 X165.13 Y46.334 E9.30194
G1 X165.296 Y46.398 E9.31614
G1 X166.099 Y46.739 E9.38578
G1 X166.288 Y46.827 E9.40242
G1 X167.082 Y47.235 E9.47368
G1 X167.199 Y47.302 E9.48444
G1 X167.978 Y47.776 E9.55723
G1 X168.129 Y47.876 E9.57169
G1 X168.843 Y48.387 E9.64178
G1 X168.991 Y48.5 E9.65664
G1 X169.682 Y49.076 E9.72845
G1 X169.795 Y49.177 E9.74055
G1 X170.444 Y49.802 E9.81247
G1 X170.564 Y49.927 E9.8263
G1 X171.167 Y50.598 E9.89832
G1 X171.263 Y50.714 E9.91034
G1 X171.822 Y51.438 E9.98335
G1 X171.916 Y51.569 E9.99622
G1 X172.416 Y52.323 E10.06844
G1 X172.492 Y52.449 E10.08019
G1 X172.938 Y53.243 E10.15288
G1 X173.016 Y53.393 E10.16638
G1 X173.399 Y54.208 E10.23826
G1 X173.459 Y54.351 E10.25064
G1 X173.788 Y55.21 E10.32406
G1 X173.84 Y55.36 E10.33674
G1 X174.095 Y56.21 E10.40757
G1 X174.142 Y56.383 E10.42189
G1 X174.34 Y57.269 E10.49435
G1 X174.365 Y57.408 E10.50563
G1 X174.498 Y58.307 E10.57817
G1 X174.516 Y58.469 E10.59118
G1 X174.583 Y59.371 E10.66338
G1 X174.592 Y59.555 E10.67809
G1 X174.6 Y60.056 E10.71808
G1 X174.6 Y159.986 E18.69493
G1 X174.564 Y160.992 E18.77528
G1 X174.554 Y161.127 E18.78609
G1 X174.452 Y162.044 E18.85974
G1 X174.427 Y162.219 E18.87385
G1 X174.265 Y163.097 E18.94512
G1 X174.235 Y163.231 E18.95608
G1 X174.004 Y164.116 E19.02909
G1 X173.952 Y164.288 E19.04344
G1 X173.676 Y165.1 E19.11189
G1 X173.596 Y165.309 E19.12976
G1 X173.261 Y166.099 E19.19826
G1 X173.18 Y166.274 E19.21365
G1 X172.765 Y167.082 E19.28616
G1 X172.698 Y167.199 E19.29692
G1 X172.224 Y167.978 E19.36971
G1 X172.124 Y168.129 E19.38417
G1 X171.613 Y168.843 E19.45425
G1 X171.5 Y168.991 E19.46912
G1 X170.924 Y169.682 E19.54093
G1 X170.823 Y169.795 E19.55302
G1 X170.198 Y170.444 E19.62495
G1 X170.073 Y170.564 E19.63878
G1 X169.403 Y171.166 E19.71068
G1 X169.286 Y171.263 E19.72281
G1 X168.574 Y171.813 E19.79463
G1 X168.415 Y171.926 E19.8102
G1 X167.677 Y172.416 E19.88091
G1 X167.551 Y172.492 E19.89266
G1 X166.757 Y172.938 E19.96535
G1 X166.606 Y173.016 E19.97892
G1 X165.792 Y173.399 E20.05073
G1 X165.649 Y173.459 E20.06311
G1 X164.79 Y173.788 E20.13653
G1 X164.64 Y173.84 E20.14921
G1 X163.79 Y174.095 E20.22004
G1 X163.617 Y174.142 E20.23435
G1 X162.722 Y174.342 E20.30756
G1 X162.592 Y174.365 E20.3181
G1 X161.687 Y174.499 E20.39113
G1 X161.519 Y174.517 E20.40461
G1 X160.629 Y174.583 E20.47585
G1 X160.445 Y174.592 E20.49056
G1 X159.94 Y174.6 E20.53087
G1 X59.997 Y174.599 E28.50876
G1 X58.996 Y174.563 E28.58871
G1 X58.873 Y174.554 E28.59856
G1 X57.956 Y174.452 E28.67221
G1 X57.781 Y174.427 E28.68632
G1 X56.892 Y174.263 E28.75848
G1 X56.769 Y174.235 E28.76855
G1 X55.875 Y174.001 E28.84232
G1 X55.712 Y173.952 E28.8559
G1 X54.87 Y173.666 E28.92689
G1 X54.704 Y173.602 E28.94109
G1 X53.901 Y173.261 E29.01073
G1 X53.712 Y173.173 E29.02737
G1 X52.918 Y172.765 E29.09863
G1 X52.801 Y172.698 E29.10939
G1 X52.022 Y172.224 E29.18218
G1 X51.871 Y172.124 E29.19664
G1 X51.157 Y171.613 E29.26672
G1 X51.009 Y171.5 E29.28159
G1 X50.318 Y170.924 E29.3534
G1 X50.205 Y170.823 E29.36549
G1 X49.556 Y170.198 E29.43742
G1 X49.436 Y170.073 E29.45125
G1 X48.833 Y169.402 E29.52326
G1 X48.736 Y169.284 E29.53546
G1 X48.178 Y168.562 E29.60829
G1 X48.074 Y168.415 E29.62267
G1 X47.581 Y167.672 E29.69385
G1 X47.508 Y167.551 E29.70513
G1 X47.056 Y166.746 E29.77882
G1 X46.984 Y166.607 E29.79132
G1 X46.587 Y165.761 E29.86591
G1 X46.541 Y165.649 E29.87558
G1 X46.212 Y164.79 E29.94901
G1 X46.155 Y164.625 E29.96294
G1 X45.905 Y163.79 E30.03252
G1 X45.858 Y163.617 E30.04683
G1 X45.657 Y162.716 E30.12052
G1 X45.635 Y162.592 E30.13057
G1 X45.5 Y161.678 E30.20432
G1 X45.483 Y161.518 E30.21717
G1 X45.417 Y160.626 E30.28856
G1 X45.408 Y160.445 E30.30303
G1 X45.4 Y159.944 E30.34303
G1 X45.4 Y60.014 E38.31987
G1 X45.436 Y59.008 E38.40023
G1 X45.446 Y58.873 E38.41103
G1 X45.548 Y57.956 E38.48468
G1 X45.573 Y57.781 E38.49879
G1 X45.735 Y56.903 E38.57006
G1 X45.765 Y56.769 E38.58102
G1 X45.996 Y55.884 E38.65403
G1 X46.048 Y55.712 E38.66838
G1 X46.334 Y54.87 E38.73936
G1 X46.398 Y54.704 E38.75356
G1 X46.739 Y53.901 E38.8232
G1 X46.82 Y53.726 E38.83859
G1 X47.235 Y52.918 E38.9111
G1 X47.302 Y52.801 E38.92187
G1 X47.776 Y52.022 E38.99466
G1 X47.876 Y51.871 E39.00911
G1 X48.387 Y51.157 E39.0792
G1 X48.5 Y51.009 E39.09406
G1 X49.076 Y50.318 E39.16587
G1 X49.177 Y50.205 E39.17797
G1 X49.802 Y49.556 E39.24989
G0 F9000 X49.6 Y49.765
G1 F1350 X49.6 Y170.24 E48.86673
G0 F9000 X51.2 Y171.643
G1 F1350 X51.2 Y48.361 E58.70763
G0 F9000 X52.8 Y47.31
G1 F1350 X52.8 Y172.697 E68.71656
G0 F9000 X54.4 Y173.472
G1 F1350 X54.4 Y46.522 E78.85026
G0 F9000 X56 Y45.968
G1 F1350 X56 Y174.033 E89.07296
G0 F9000 X57.6 Y174.393
G1 F1350 X57.6 Y45.606 E99.3533
G0 F9000 X59.2 Y45.429
G1 F1350 X59.2 Y174.57 E109.66189
G0 F9000 X60.8 Y174.599
G1 F1350 X60.8 Y45.401 E119.97503
G0 F9000 X62.4 Y45.401
G1 F1350 X62.4 Y174.599 E130.28818
G0 F9000 X64 Y174.599
G1 F1350 X64 Y45.401 E140.60132
G0 F9000 X65.6 Y45.401
G1 F1350 X65.6 Y174.599 E150.91446
G0 F9000 X67.2 Y174.599
G1 F1350 X67.2 Y45.401 E161.22761
G0 F9000 X68.8 Y45.401
G1 F1350 X68.8 Y174.599 E171.54075
G0 F9000 X70.4 Y174.599
G1 F1350 X70.4 Y45.401 E181.85389
G0 F9000 X72 Y45.401
G1 F1350 X72 Y174.599 E192.16704
G0 F9000 X73.6 Y174.599
G1 F1350 X73.6 Y45.401 E202.48018
G0 F9000 X75.2 Y45.401
G1 F1350 X75.2 Y174.599 E212.79332
G0 F9000 X76.8 Y174.599
G1 F1350 X76.8 Y45.401 E223.10646
G0 F9000 X78.4 Y45.401
G1 F1350 X78.4 Y174.599 E233.41961
G0 F9000 X80 Y174.599
G1 F1350 X80 Y45.401 E243.73275
G0 F9000 X81.6 Y45.401
G1 F1350 X81.6 Y174.599 E254.04589
G0 F9000 X83.2 Y174.599
G1 F1350 X83.2 Y45.401 E264.35904
G0 F9000 X84.8 Y45.401
G1 F1350 X84.8 Y174.599 E274.67218
G0 F9000 X86.4 Y174.599
G1 F1350 X86.4 Y45.401 E284.98532
G0 F9000 X88 Y45.401
G1 F1350 X88 Y174.599 E295.29847
G0 F9000 X89.6 Y174.599
G1 F1350 X89.6 Y45.401 E305.61161
G0 F9000 X91.2 Y45.401
G1 F1350 X91.2 Y174.599 E315.92475
G0 F9000 X92.8 Y174.599
G1 F1350 X92.8 Y45.401 E326.2379
G0 F9000 X94.4 Y45.401
G1 F1350 X94.4 Y174.599 E336.55104
G0 F9000 X96 Y174.599
G1 F1350 X96 Y45.401 E346.86418
G0 F9000 X97.6 Y45.401
G1 F1350 X97.6 Y174.599 E357.17732
G0 F9000 X99.2 Y174.599
G1 F1350 X99.2 Y45.401 E367.49047
G0 F9000 X100.8 Y45.401
G1 F1350 X100.8 Y174.599 E377.80361
G0 F9000 X102.4 Y174.599
G1 F1350 X102.4 Y45.401 E388.11675
G0 F9000 X104 Y45.401
G1 F1350 X104 Y174.599 E398.4299
G0 F9000 X105.6 Y174.599
G1 F1350 X105.6 Y45.401 E408.74304
G0 F9000 X107.2 Y45.401
G1 F1350 X107.2 Y174.599 E419.05618
G0 F9000 X108.8 Y174.599
G1 F1350 X108.8 Y45.401 E429.36933
G0 F9000 X110.4 Y45.401
G1 F1350 X110.4 Y174.599 E439.68247
G0 F9000 X112 Y174.599
G1 F1350 X112 Y45.401 E449.99561
G0 F9000 X113.6 Y45.401
G1 F1350 X113.6 Y174.599 E460.30875
G0 F9000 X115.2 Y174.599
G1 F1350 X115.2 Y45.401 E470.6219
G0 F9000 X116.8 Y45.401
G1 F1350 X116.8 Y174.599 E480.93504
G0 F9000 X118.4 Y174.599
G1 F1350 X118.4 Y45.401 E491.24818
G0 F9000 X120 Y45.401
G1 F1350 X120 Y174.599 E501.56133
G0 F9000 X121.6 Y174.599
G1 F1350 X121.6 Y45.401 E511.87447
G0 F9000 X123.2 Y45.401
G1 F1350 X123.2 Y174.599 E522.18761
G0 F9000 X124.8 Y174.599
G1 F1350 X124.8 Y45.401 E532.50076
G0 F9000 X126.4 Y45.401
G1 F1350 X126.4 Y174.599 E542.8139
G0 F9000 X128 Y174.599
G1 F1350 X128 Y45.401 E553.12704
G0 F9000 X129.6 Y45.401
G1 F1350 X129.6 Y174.599 E563.44018
G0 F9000 X131.2 Y174.599
G1 F1350 X131.2 Y45.401 E573.75333
G0 F9000 X132.8 Y45.401
G1 F1350 X132.8 Y174.599 E584.06647
G0 F9000 X134.4 Y174.599
G1 F1350 X134.4 Y45.401 E594.37961
G0 F9000 X136 Y45.401
G1 F1350 X136 Y174.599 E604.69276
G0 F9000 X137.6 Y174.599
G1 F1350 X137.6 Y45.401 E615.0059
G0 F9000 X139.2 Y45.401
G1 F1350 X139.2 Y174.599 E625.31904
G0 F9000 X140.8 Y174.599
G1 F1350 X140.8 Y45.401 E635.63219
G0 F9000 X142.4 Y45.401
G1 F1350 X142.4 Y174.599 E645.94533
G0 F9000 X144 Y174.599
G1 F1350 X144 Y45.401 E656.25847
G0 F9000 X145.6 Y45.401
G1 F1350 X145.6 Y174.599 E666.57162
G0 F9000 X147.2 Y174.599
G1 F1350 X147.2 Y45.401 E676.88476
G0 F9000 X148.8 Y45.401
G1 F1350 X148.8 Y174.599 E687.1979
G0 F9000 X150.4 Y174.599
G1 F1350 X150.4 Y45.401 E697.51104
G0 F9000 X152 Y45.401
G1 F1350 X152 Y174.599 E707.82419
G0 F9000 X153.6 Y174.599
G1 F1350 X153.6 Y45.401 E718.13733
G0 F9000 X155.2 Y45.401
G1 F1350 X155.2 Y174.599 E728.45047
G0 F9000 X156.8 Y174.599
G1 F1350 X156.8 Y45.401 E738.76362
G0 F9000 X158.4 Y45.401
G1 F1350 X158.4 Y174.599 E749.07676
G0 F9000 X160 Y174.6
G1 F1350 X160 Y45.401 E759.38998
G0 F9000 X161.6 Y45.499
G1 F1350 X161.6 Y174.509 E769.68812
G0 F9000 X163.2 Y174.236
G1 F1350 X163.2 Y45.758 E779.94379
G0 F9000 X164.8 Y46.222
G1 F1350 X164.8 Y173.785 E790.12642
G0 F9000 X166.4 Y173.113
G1 F1350 X166.4 Y46.885 E800.20248
G0 F9000 X168 Y47.791
G1 F1350 X168 Y172.202 E810.13351
G0 F9000 X169.6 Y170.989
G1 F1350 X169.6 Y49.008 E819.87056
G0 F9000 X171.2 Y50.638
G1 F1350 X171.2 Y169.351 E829.34674
G0 F9000 X172.8 Y167.014
G1 F1350 X172.8 Y52.998 E838.44799
G1 F1500 E832.44799
G0 F9000 X173.966 Y52.914
G0 X174.787 Y54.841
G0 X174.896 Y55.203
G0 X175.385 Y57.066
G0 X174.4 Y57.645
G1 F1500 E838.44799
G1 F1350 X174.4 Y162.366 E846.80728
G1 F1500 E840.80728
G0 F9000 X175.447 Y162.559
G0 X174.964 Y164.62
G0 X174.231 Y166.538
G0 X173.613 Y167.743
G0 X172.466 Y169.481
G0 X171.608 Y170.514
G0 X170.103 Y171.968
G0 X169.023 Y172.799
G0 X167.257 Y173.878
G0 X166.039 Y174.45
G0 X164.073 Y175.121
G0 X162.758 Y175.417
G0 X160.69 Y175.646
G0 X58.943 Y175.626
G0 X57.617 Y175.479
G0 X55.59 Y175.027
G0 X54.3 Y174.587
G0 X52.42 Y173.705
G0 X51.261 Y172.996
G0 X49.617 Y171.725
G0 X48.66 Y170.802
G0 X47.327 Y169.201
G0 X48 Y168.303
G1 F1500 E846.80728
G1 F1350 X48 Y51.697 E856.11527
G0 F9000 X46.4 Y54.699
G1 F1350 X46.4 Y165.28 E864.94232
G0 F300 X46.4 Y165.28 Z0.48
G0 F9000 X47.813 Y168.021
;TIME_ELAPSED:499.022441
;LAYER:-5
;TYPE:SUPPORT
G1 F1350 X52 Y172.208 E865.41499
G1 X51.871 Y172.123 E865.42732
G1 X51.157 Y171.612 E865.49741
G1 X51.008 Y171.499 E865.51234
G1 X50.317 Y170.923 E865.58414
G1 X50.205 Y170.822 E865.59618
G1 X49.556 Y170.197 E865.66811
G1 X49.435 Y170.072 E865.68199
G1 X48.832 Y169.401 E865.75401
G1 X48.735 Y169.283 E865.7662
G1 X48.178 Y168.561 E865.83899
G1 X48.074 Y168.413 E865.85343
G1 F1500 E859.85343
G0 F9000 X47.327 Y169.201
G0 X48.66 Y170.802
G0 X49.617 Y171.725
G0 X51.261 Y172.996
G0 X52 Y172.208
G1 F1500 E865.85343
G1 F1350 X52.021 Y172.222 E865.85544
G1 X52.801 Y172.696 E865.9283
G1 X52.917 Y172.763 E865.93899
G1 X53.711 Y173.171 E866.01025
G1 X53.9 Y173.26 E866.02693
G1 X54.703 Y173.601 E866.09657
G1 X54.87 Y173.665 E866.11084
G0 F9000 X54.872 Y173.666
G1 F1350 X46.345 Y165.139 E867.07345
G1 X46.211 Y164.789 E867.10336
G1 X46.154 Y164.623 E867.11737
G1 X45.904 Y163.789 E867.18687
G1 X45.857 Y163.616 E867.20118
G1 X45.748 Y163.128 E867.2411
G1 X56.878 Y174.258 E868.49755
G1 X56.892 Y174.262 E868.49871
G1 X57.78 Y174.426 E868.57079
G1 X57.955 Y174.451 E868.5849
G1 X58.551 Y174.516 E868.63276
G1 X45.476 Y161.442 E870.10872
G1 X45.416 Y160.625 E870.17412
G1 X45.408 Y160.444 E870.18858
G1 X45.4 Y159.951 E870.22794
G1 X60.046 Y174.598 E871.88136
G1 X61.461 Y174.598 E871.99431
G1 X45.399 Y158.536 E873.80753
G1 X45.399 Y157.122 E873.9204
G1 X62.875 Y174.598 E875.89324
G1 X64.289 Y174.598 E876.00611
G1 X45.399 Y155.708 E878.13858
G1 X45.399 Y154.294 E878.25145
G1 X65.703 Y174.598 E880.54354
G1 X67.117 Y174.598 E880.65641
G1 X45.399 Y152.88 E883.10813
G1 X45.399 Y151.465 E883.22108
G1 X68.532 Y174.598 E885.83253
G1 X69.946 Y174.598 E885.94541
G1 X45.399 Y150.051 E888.71648
G1 X45.399 Y148.637 E888.82935
G1 X71.36 Y174.598 E891.76006
G1 X72.774 Y174.598 E891.87293
G1 X45.399 Y147.223 E894.96325
G1 X45.399 Y145.808 E895.07621
G1 X74.188 Y174.598 E898.32621
G1 X75.603 Y174.598 E898.43917
G1 X45.399 Y144.394 E901.84885
G1 X45.399 Y142.98 E901.96173
G1 X77.017 Y174.598 E905.53104
G1 X78.431 Y174.598 E905.64391
G1 X45.399 Y141.566 E909.37285
G1 X45.399 Y140.152 E909.48572
G1 X79.845 Y174.598 E913.37428
G1 X81.26 Y174.598 E913.48723
G1 X45.399 Y138.737 E917.53553
G1 X45.399 Y137.323 E917.6484
G1 X82.674 Y174.598 E921.85633
G1 X84.088 Y174.598 E921.9692
G1 X45.399 Y135.909 E926.33675
G1 X45.399 Y134.495 E926.44962
G1 X85.502 Y174.598 E930.97679
G1 X86.916 Y174.598 E931.08966
G1 X45.399 Y133.081 E935.77646
G1 X45.399 Y131.666 E935.88941
G1 X88.331 Y174.598 E940.73595
G1 X89.745 Y174.598 E940.84882
G1 X45.399 Y130.252 E945.85498
G1 X45.399 Y128.838 E945.96785
G1 X91.159 Y174.598 E951.13364
G1 X92.573 Y174.598 E951.24651
G1 X45.399 Y127.424 E956.57192
G1 X45.399 Y126.009 E956.68487
G1 X93.987 Y174.598 E962.16996
G1 X95.402 Y174.598 E962.28291
G1 X45.399 Y124.595 E967.92768
G1 X45.399 Y123.181 E968.04055
G1 X96.816 Y174.598 E973.84495
G1 X98.23 Y174.598 E973.95782
G1 X45.399 Y121.767 E979.92184
G1 X45.399 Y120.353 E980.03471
G1 X99.644 Y174.598 E986.15835
G1 X101.058 Y174.598 E986.27123
G1 X45.399 Y118.938 E992.55455
G1 X45.399 Y117.524 E992.66742
G1 X102.473 Y174.598 E999.11043
G1 X103.887 Y174.598 E999.2233
G1 X45.399 Y116.11 E1005.82593
G1 X45.399 Y114.696 E1005.9388
G1 X105.301 Y174.598 E1012.70106
G1 X106.715 Y174.598 E1012.81393
G1 X45.399 Y113.282 E1019.73581
G1 X45.399 Y111.867 E1019.84876
G1 X108.13 Y174.598 E1026.93038
G1 X109.544 Y174.598 E1027.04325
G1 X45.399 Y110.453 E1034.28449
G1 X45.399 Y109.039 E1034.39736
G1 X110.959 Y174.598 E1041.79829
G1 X112.373 Y174.598 E1041.91116
G1 X45.399 Y107.625 E1049.47171
G1 X45.399 Y106.21 E1049.58466
G1 X113.787 Y174.598 E1057.30489
G1 X115.201 Y174.598 E1057.41776
G1 X45.399 Y104.796 E1065.29761
G1 X45.399 Y103.382 E1065.41048
G1 X116.616 Y174.598 E1073.45002
G1 X118.03 Y174.598 E1073.56289
G1 X45.399 Y101.968 E1081.76205
G1 X45.399 Y100.554 E1081.87492
G1 X119.444 Y174.598 E1090.2337
G1 X120.858 Y174.598 E1090.34657
G1 X45.399 Y99.139 E1098.86504
G1 X45.399 Y97.725 E1098.97791
G1 X122.272 Y174.598 E1107.656
G1 X123.687 Y174.598 E1107.76895
G1 X45.399 Y96.311 E1116.60672
G1 X45.399 Y94.897 E1116.71959
G1 X125.101 Y174.598 E1125.71698
G1 X126.515 Y174.598 E1125.82985
G1 X45.399 Y93.483 E1134.98687
G1 X45.399 Y92.068 E1135.09982
G1 X127.929 Y174.598 E1144.41652
G1 X129.343 Y174.598 E1144.5294
G1 X45.399 Y90.654 E1154.00572
G1 X45.399 Y89.24 E1154.11859
G1 X130.758 Y174.598 E1163.7546
G1 X132.172 Y174.598 E1163.86747
G1 X45.399 Y87.826 E1173.6631
G1 X45.399 Y86.411 E1173.77605
