;FLAVOR:Marlin
;TIME:25424
;Filament used: 7.7988m
;Layer height: 0.12
;MINX:73.088
;MINY:68.109
;MINZ:0.24
;MAXX:146.915
;MAXY:151.892
;MAXZ:75.77
;Generated with Cura_SteamEngine 4.8.0
M140 S60
M105
M190 S60
M104 S210
M105
M109 S210
M82 ;absolute extrusion mode
; Ender 3 Custom Start G-code
G92 E0 ; Reset Extruder
G28 ; Home all axes
G1 Z2.0 F3000 ; Move Z Axis up little to prevent scratching of Heat Bed
G1 X0.1 Y20 Z0.3 F5000.0 ; Move to start position
G1 X0.1 Y200.0 Z0.3 F1500.0 E15 ; Draw the first line
G1 X0.4 Y200.0 Z0.3 F5000.0 ; Move to side a little
G1 X0.4 Y20 Z0.3 F1500.0 E30 ; Draw the second line
G92 E0 ; Reset Extruder
G1 Z2.0 F3000 ; Move Z Axis up little to prevent scratching of Heat Bed
G1 X5 Y20 Z0.3 F5000.0 ; Move over to prevent blob squish
G92 E0
G92 E0
G1 F1800 E-6
;LAYER_COUNT:624
;LAYER:-7
M107
G0 F9000 X79.351 Y87.66 Z0.24
;TYPE:SUPPORT-INTERFACE
G1 F1800 E0
G1 F1125 X79.468 Y87.563 E0.01213
G1 X80.179 Y87.014 E0.08384
G1 X80.338 Y86.901 E0.09941
G1 X81.076 Y86.411 E0.17012
G1 X81.202 Y86.335 E0.18187
G1 X81.996 Y85.889 E0.25456
G1 X82.146 Y85.811 E0.26806
G1 X82.966 Y85.426 E0.34037
G1 X83.104 Y85.368 E0.35232
G1 X83.963 Y85.039 E0.42574
G1 X84.113 Y84.987 E0.43842
G1 X84.963 Y84.732 E0.50926
G1 X85.136 Y84.685 E0.52357
G1 X86.031 Y84.485 E0.59677
G1 X86.161 Y84.462 E0.60731
G1 X87.066 Y84.328 E0.68034
G1 X87.235 Y84.31 E0.6939
G1 X88.124 Y84.244 E0.76506
G1 X88.308 Y84.235 E0.77977
G1 X88.813 Y84.227 E0.82008
G1 X91.108 Y84.227 E1.00328
G1 X91.776 Y84.185 E1.05671
G1 X92.447 Y84.056 E1.11125
G1 X93.096 Y83.843 E1.16578
G1 X93.713 Y83.551 E1.22027
G1 X94.288 Y83.183 E1.27476
G1 X94.812 Y82.745 E1.32928
G1 X95.276 Y82.245 E1.38373
G1 X95.675 Y81.689 E1.43835
G1 X96.001 Y81.084 E1.49321
G1 X96.316 Y80.206 E1.56767
G1 X96.441 Y79.725 E1.60734
G1 X96.498 Y79.536 E1.6231
G1 X96.784 Y78.694 E1.69408
G1 X96.848 Y78.528 E1.70829
G1 X97.187 Y77.727 E1.77772
G1 X97.274 Y77.542 E1.79404
G1 X97.658 Y76.787 E1.86165
G1 X97.72 Y76.679 E1.87159
G1 X98.178 Y75.913 E1.94283
G1 X98.277 Y75.76 E1.95738
G1 X98.793 Y75.024 E2.02913
G1 X98.883 Y74.905 E2.04104
G1 X99.465 Y74.193 E2.11445
G1 X99.555 Y74.09 E2.12536
G1 X100.189 Y73.419 E2.19905
G1 X100.312 Y73.297 E2.21288
G1 X100.966 Y72.701 E2.28351
G1 X101.113 Y72.578 E2.29881
G1 X101.81 Y72.029 E2.36964
G1 X101.94 Y71.933 E2.38254
G1 X102.689 Y71.427 E2.45469
G1 X102.814 Y71.349 E2.46645
G1 X103.611 Y70.892 E2.53979
G1 X103.747 Y70.821 E2.55204
G1 X104.578 Y70.422 E2.62562
G1 X104.716 Y70.361 E2.63766
G1 X105.578 Y70.022 E2.7116
G1 X105.685 Y69.985 E2.72064
G1 X106.597 Y69.701 E2.79689
G1 X106.71 Y69.671 E2.80622
G1 X107.61 Y69.46 E2.88001
G1 X107.771 Y69.428 E2.89311
G1 X108.661 Y69.289 E2.96502
G1 X108.808 Y69.272 E2.97683
G1 X109.75 Y69.193 E3.05229
G1 X109.862 Y69.187 E3.06124
G1 X110.527 Y69.173 E3.11434
G1 X124.453 Y69.174 E4.22597
G1 X125.454 Y69.21 E4.30593
G1 X125.577 Y69.219 E4.31577
G1 X126.494 Y69.321 E4.38942
G1 X126.669 Y69.346 E4.40353
G1 X127.558 Y69.51 E4.47569
G1 X127.681 Y69.538 E4.48576
G1 X128.575 Y69.772 E4.55953
G1 X128.738 Y69.821 E4.57312
G1 X129.58 Y70.107 E4.6441
G1 X129.746 Y70.171 E4.6583
G1 X130.549 Y70.512 E4.72794
G1 X130.738 Y70.6 E4.74458
G1 X131.532 Y71.008 E4.81584
G1 X131.649 Y71.075 E4.8266
G1 X132.428 Y71.549 E4.89939
G1 X132.579 Y71.649 E4.91385
G1 X133.293 Y72.16 E4.98394
G1 X133.441 Y72.273 E4.9988
G1 X134.132 Y72.849 E5.07061
G1 X134.245 Y72.95 E5.08271
G1 X134.894 Y73.575 E5.15463
G1 X135.014 Y73.7 E5.16846
G1 X135.617 Y74.371 E5.24048
G1 X135.713 Y74.487 E5.2525
G1 X136.263 Y75.199 E5.32431
G1 X136.376 Y75.358 E5.33988
G1 X136.866 Y76.096 E5.4106
G1 X136.942 Y76.222 E5.42234
G1 X137.388 Y77.016 E5.49504
G1 X137.466 Y77.166 E5.50853
G1 X137.849 Y77.981 E5.58042
G1 X137.909 Y78.124 E5.59279
G1 X138.238 Y78.983 E5.66622
G1 X138.29 Y79.133 E5.67889
G1 X138.545 Y79.983 E5.74973
G1 X138.592 Y80.156 E5.76404
G1 X138.788 Y81.036 E5.83601
G1 X138.817 Y81.195 E5.84891
G1 X138.948 Y82.08 E5.92032
G1 X138.966 Y82.242 E5.93334
G1 X139.033 Y83.144 E6.00554
G1 X139.042 Y83.328 E6.02024
G1 X139.049 Y83.743 E6.05337
G1 X139.054 Y84.229 E6.09217
G1 X139.076 Y84.229 E6.09393
G1 X139.092 Y84.486 E6.11448
G1 X139.221 Y85.157 E6.16902
G1 X139.434 Y85.806 E6.22355
G1 X139.726 Y86.423 E6.27804
G1 X140.094 Y86.998 E6.33253
G1 X140.532 Y87.521 E6.38699
G1 X140.58 Y87.566 E6.39224
G1 X140.57 Y87.578 E6.39348
G1 X141.045 Y88.004 E6.44442
G1 X141.694 Y88.629 E6.51634
G1 X141.814 Y88.754 E6.53017
G1 X142.417 Y89.425 E6.60218
G1 X142.513 Y89.541 E6.6142
G1 X143.072 Y90.265 E6.68722
G1 X143.166 Y90.396 E6.70009
G1 X143.666 Y91.15 E6.77231
G1 X143.742 Y91.276 E6.78405
G1 X144.188 Y92.07 E6.85675
G1 X144.266 Y92.22 E6.87024
G1 X144.649 Y93.035 E6.94212
G1 X144.709 Y93.178 E6.9545
G1 X145.038 Y94.037 E7.02793
G1 X145.09 Y94.187 E7.0406
G1 X145.345 Y95.037 E7.11144
G1 X145.392 Y95.21 E7.12575
G1 X145.59 Y96.096 E7.19822
G1 X145.615 Y96.235 E7.20949
G1 X145.748 Y97.134 E7.28204
G1 X145.766 Y97.296 E7.29505
G1 X145.833 Y98.199 E7.36733
G1 X145.842 Y98.381 E7.38187
G1 X145.85 Y98.888 E7.42235
G1 X145.849 Y102.762 E7.73159
G1 X145.813 Y103.768 E7.81194
G1 X145.803 Y103.903 E7.82275
G1 X145.701 Y104.821 E7.89648
G1 X145.676 Y104.996 E7.91059
G1 X145.516 Y105.857 E7.9805
G1 X145.473 Y106.051 E7.99636
G1 X145.252 Y106.891 E8.06569
G1 X145.206 Y107.048 E8.07875
G1 X144.909 Y107.919 E8.15221
G1 X144.84 Y108.102 E8.16782
G1 X144.642 Y108.742 E8.2213
G1 X144.524 Y109.415 E8.27584
G1 X144.492 Y110.097 E8.33034
G1 X144.546 Y110.777 E8.38479
G1 X144.685 Y111.442 E8.43902
G1 X144.844 Y111.928 E8.47984
G1 X145.04 Y112.441 E8.52367
G1 X145.09 Y112.587 E8.53599
G1 X145.345 Y113.437 E8.60683
G1 X145.392 Y113.61 E8.62114
G1 X145.59 Y114.496 E8.69361
G1 X145.615 Y114.635 E8.70488
G1 X145.748 Y115.534 E8.77743
G1 X145.766 Y115.696 E8.79044
G1 X145.833 Y116.598 E8.86264
G1 X145.842 Y116.782 E8.87734
G1 X145.85 Y117.283 E8.91734
G1 X145.85 Y121.213 E9.23105
G1 X145.814 Y122.219 E9.31141
G1 X145.804 Y122.354 E9.32221
G1 X145.702 Y123.271 E9.39586
G1 X145.677 Y123.446 E9.40997
G1 X145.515 Y124.324 E9.48124
G1 X145.485 Y124.458 E9.4922
G1 X145.254 Y125.343 E9.56521
G1 X145.202 Y125.515 E9.57956
G1 X144.926 Y126.327 E9.64802
G1 X144.846 Y126.536 E9.66588
G1 X144.511 Y127.326 E9.73438
G1 X144.43 Y127.501 E9.74977
G1 X144.015 Y128.309 E9.82228
G1 X143.948 Y128.426 E9.83304
G1 X143.474 Y129.205 E9.90583
G1 X143.374 Y129.356 E9.92029
G1 X142.863 Y130.07 E9.99037
G1 X142.75 Y130.218 E10.00524
G1 X142.174 Y130.909 E10.07705
G1 X142.073 Y131.022 E10.08915
G1 X141.447 Y131.672 E10.16118
G1 X141.311 Y131.803 E10.17625
G1 X140.836 Y132.23 E10.22724
G1 X140.366 Y132.708 E10.28075
G1 X139.952 Y133.251 E10.33526
G1 X139.611 Y133.843 E10.38979
G1 X139.347 Y134.473 E10.44432
G1 X139.163 Y135.137 E10.49932
G1 X139.051 Y136.127 E10.57885
G1 X139.05 Y136.213 E10.58571
G1 X139.014 Y137.219 E10.66607
G1 X139.004 Y137.354 E10.67687
G1 X138.902 Y138.271 E10.75052
G1 X138.877 Y138.446 E10.76464
G1 X138.715 Y139.324 E10.8359
G1 X138.685 Y139.458 E10.84687
G1 X138.454 Y140.343 E10.91988
G1 X138.402 Y140.515 E10.93422
G1 X138.126 Y141.327 E11.00268
G1 X138.046 Y141.536 E11.02054
G1 X137.711 Y142.326 E11.08904
G1 X137.63 Y142.501 E11.10443
G1 X137.215 Y143.309 E11.17694
G1 X137.148 Y143.426 E11.1877
G1 X136.674 Y144.205 E11.26049
G1 X136.574 Y144.356 E11.27495
G1 X136.063 Y145.07 E11.34504
G1 X135.95 Y145.218 E11.3599
G1 X135.374 Y145.909 E11.43171
G1 X135.273 Y146.022 E11.44381
G1 X134.648 Y146.671 E11.51573
G1 X134.523 Y146.791 E11.52956
G1 X133.853 Y147.393 E11.60146
G1 X133.736 Y147.49 E11.61359
G1 X133.024 Y148.04 E11.68541
G1 X132.865 Y148.153 E11.70098
G1 X132.127 Y148.643 E11.7717
G1 X132.001 Y148.719 E11.78344
G1 X131.207 Y149.165 E11.85614
G1 X131.056 Y149.243 E11.8697
G1 X130.242 Y149.626 E11.94151
G1 X130.099 Y149.686 E11.95389
G1 X129.24 Y150.015 E12.02732
G1 X129.09 Y150.067 E12.03999
G1 X128.24 Y150.322 E12.11083
G1 X128.067 Y150.369 E12.12514
G1 X127.172 Y150.569 E12.19834
G1 X127.042 Y150.592 E12.20888
G1 X126.137 Y150.726 E12.28191
G1 X125.969 Y150.744 E12.2954
G1 X125.079 Y150.81 E12.36664
G1 X124.895 Y150.819 E12.38134
G1 X124.39 Y150.827 E12.42166
G1 X110.447 Y150.826 E13.53465
G1 X109.446 Y150.79 E13.61461
G1 X109.323 Y150.781 E13.62445
G1 X108.406 Y150.679 E13.6981
G1 X108.231 Y150.654 E13.71221
G1 X107.342 Y150.49 E13.78437
G1 X107.219 Y150.462 E13.79444
G1 X106.325 Y150.228 E13.86821
G1 X106.162 Y150.179 E13.8818
G1 X105.32 Y149.893 E13.95278
G1 X105.154 Y149.829 E13.96698
G1 X104.351 Y149.488 E14.03662
G1 X104.162 Y149.4 E14.05326
G1 X103.368 Y148.992 E14.12452
G1 X103.251 Y148.925 E14.13528
G1 X102.472 Y148.451 E14.20807
G1 X102.321 Y148.351 E14.22253
G1 X101.607 Y147.84 E14.29262
G1 X101.459 Y147.727 E14.30748
G1 X100.768 Y147.151 E14.37929
G1 X100.655 Y147.05 E14.39139
G1 X100.006 Y146.425 E14.46331
G1 X99.886 Y146.3 E14.47714
G1 X99.283 Y145.629 E14.54916
G1 X99.186 Y145.511 E14.56135
G1 X98.628 Y144.789 E14.63419
G1 X98.524 Y144.642 E14.64856
G1 X98.031 Y143.899 E14.71974
G1 X97.958 Y143.778 E14.73102
G1 X97.506 Y142.973 E14.80472
G1 X97.434 Y142.834 E14.81721
G1 X97.037 Y141.988 E14.89181
G1 X96.991 Y141.876 E14.90147
G1 X96.661 Y141.014 E14.97515
G1 X96.605 Y140.852 E14.98883
G1 X96.355 Y140.018 E15.05833
G1 X96.308 Y139.84 E15.07303
G1 X96.097 Y139.204 E15.12652
G1 X95.801 Y138.588 E15.18107
G1 X95.43 Y138.015 E15.23556
G1 X94.991 Y137.492 E15.29007
G1 X94.488 Y137.029 E15.34464
G1 X93.931 Y136.634 E15.39915
G1 X93.329 Y136.312 E15.45364
G1 X92.691 Y136.069 E15.50814
G1 X92.023 Y135.907 E15.56301
G1 X91.106 Y135.827 E15.63649
G1 X88.75 Y135.826 E15.82455
G1 X87.749 Y135.79 E15.90451
G1 X87.626 Y135.781 E15.91435
G1 X86.709 Y135.679 E15.988
G1 X86.534 Y135.654 E16.00212
G1 X85.645 Y135.49 E16.07428
G1 X85.522 Y135.462 E16.08435
G1 X84.628 Y135.228 E16.15811
G1 X84.465 Y135.179 E16.1717
G1 X83.623 Y134.893 E16.24268
G1 X83.457 Y134.829 E16.25688
G1 X82.654 Y134.488 E16.32652
G1 X82.465 Y134.4 E16.34317
G1 X81.671 Y133.992 E16.41442
G1 X81.554 Y133.925 E16.42519
G1 X80.775 Y133.451 E16.49798
G1 X80.624 Y133.351 E16.51243
G1 X79.91 Y132.84 E16.58252
G1 X79.762 Y132.727 E16.59738
G1 X79.071 Y132.151 E16.66919
G1 X78.958 Y132.05 E16.68129
G1 X78.309 Y131.425 E16.75321
G1 X78.189 Y131.3 E16.76705
G1 X77.586 Y130.629 E16.83906
G1 X77.489 Y130.511 E16.85125
G1 X76.931 Y129.789 E16.92409
G1 X76.827 Y129.642 E16.93847
G1 X76.334 Y128.899 E17.00964
G1 X76.261 Y128.778 E17.02092
G1 X75.809 Y127.973 E17.09462
G1 X75.737 Y127.834 E17.10711
G1 X75.34 Y126.988 E17.18171
G1 X75.294 Y126.876 E17.19138
G1 X74.965 Y126.017 E17.2648
G1 X74.908 Y125.852 E17.27874
G1 X74.658 Y125.017 E17.34831
G1 X74.611 Y124.844 E17.36262
G1 X74.41 Y123.943 E17.43631
G1 X74.388 Y123.819 E17.44637
G1 X74.253 Y122.905 E17.52012
G1 X74.236 Y122.745 E17.53296
G1 X74.17 Y121.853 E17.60436
G1 X74.161 Y121.672 E17.61883
G1 X74.153 Y121.171 E17.65882
G1 X74.153 Y98.841 E19.4413
G1 X74.189 Y97.835 E19.52165
G1 X74.199 Y97.7 E19.53246
G1 X74.301 Y96.783 E19.60611
G1 X74.326 Y96.608 E19.62022
G1 X74.488 Y95.73 E19.69149
G1 X74.518 Y95.596 E19.70245
G1 X74.749 Y94.711 E19.77546
G1 X74.801 Y94.539 E19.78981
G1 X75.087 Y93.697 E19.86079
G1 X75.151 Y93.531 E19.87499
G1 X75.492 Y92.728 E19.94463
G1 X75.573 Y92.553 E19.96002
G1 X75.988 Y91.745 E20.03253
G1 X76.055 Y91.628 E20.04329
G1 X76.529 Y90.849 E20.11608
G1 X76.629 Y90.698 E20.13054
G1 X77.14 Y89.984 E20.20063
G1 X77.253 Y89.836 E20.21549
G1 X77.829 Y89.145 E20.2873
G1 X77.93 Y89.032 E20.2994
G1 X78.555 Y88.383 E20.37132
G1 X78.68 Y88.263 E20.38515
G1 X79.351 Y87.66 E20.45717
G0 F9000 X80 Y87.152
G1 F1125 X80 Y132.904 E24.10929
G0 F9000 X81.6 Y133.951
G1 F1125 X81.6 Y86.111 E27.92808
G0 F9000 X83.2 Y85.331
G1 F1125 X83.2 Y134.719 E31.87045
G0 F9000 X84.8 Y135.273
G1 F1125 X84.8 Y84.78 E35.90102
G0 F9000 X86.4 Y84.426
G1 F1125 X86.4 Y135.629 E39.98826
G0 F9000 X88 Y135.799
G1 F1125 X88 Y84.253 E44.10289
G0 F9000 X89.6 Y84.227
G1 F1125 X89.6 Y135.826 E48.22174
G0 F9000 X91.2 Y135.835
G1 F1125 X91.2 Y84.221 E52.3418
G0 F9000 X92.8 Y83.94
G1 F1125 X92.8 Y136.11 E56.50623
G0 F9000 X94.4 Y136.966
G1 F1125 X94.4 Y83.089 E60.80693
G0 F9000 X96 Y81.085
G1 F1125 X96 Y139.002 E65.43011
G0 F9000 X97.6 Y143.14
G1 F1125 X97.6 Y76.901 E70.71759
G0 F9000 X99.2 Y74.517
G1 F1125 X99.2 Y145.528 E76.386
G0 F9000 X100.8 Y147.177
G1 F1125 X100.8 Y72.852 E82.31894
G0 F9000 X102.4 Y71.622
G1 F1125 X102.4 Y148.403 E88.44793
G0 F9000 X104 Y149.316
G1 F1125 X104 Y70.699 E94.72348
G0 F9000 X105.6 Y70.014
G1 F1125 X105.6 Y149.988 E101.10735
G0 F9000 X107.2 Y150.457
G1 F1125 X107.2 Y69.556 E107.56522
G0 F9000 X108.8 Y69.272
G1 F1125 X108.8 Y150.722 E114.06691
G0 F9000 X110.4 Y150.824
G1 F1125 X110.4 Y69.175 E120.58449
G0 F9000 X112 Y69.174
G1 F1125 X112 Y150.826 E127.1023
G0 F9000 X113.6 Y150.826
G1 F1125 X113.6 Y69.174 E133.62012
G0 F9000 X115.2 Y69.174
G1 F1125 X115.2 Y150.826 E140.13794
G0 F9000 X116.8 Y150.826
G1 F1125 X116.8 Y69.174 E146.65575
G0 F9000 X118.4 Y69.174
G1 F1125 X118.4 Y150.826 E153.17357
G0 F9000 X120 Y150.826
G1 F1125 X120 Y69.174 E159.69138
G0 F9000 X121.6 Y69.174
G1 F1125 X121.6 Y150.826 E166.2092
G0 F9000 X123.2 Y150.826
G1 F1125 X123.2 Y69.174 E172.72701
G0 F9000 X124.8 Y69.187
G1 F1125 X124.8 Y150.821 E179.24339
G0 F9000 X126.4 Y150.688
G1 F1125 X126.4 Y69.311 E185.73926
G0 F9000 X128 Y69.622
G1 F1125 X128 Y150.384 E192.18603
G0 F9000 X129.6 Y149.878
G1 F1125 X129.6 Y70.115 E198.55306
G0 F9000 X131.2 Y70.838
G1 F1125 X131.2 Y149.169 E204.80578
G0 F9000 X132.8 Y148.197
G1 F1125 X132.8 Y71.808 E210.90348
G0 F9000 X134.4 Y73.1
G1 F1125 X134.4 Y146.902 E216.79467
G0 F9000 X136 Y145.153
G1 F1125 X136 Y74.859 E222.40584
G0 F9000 X137.6 Y77.452
G1 F1125 X137.6 Y142.56 E227.60304
G1 F1800 E221.60304
G0 F9000 X138.681 Y142.765
G0 X139.414 Y140.847
G0 X139.756 Y139.543
G0 X140.004 Y137.855
G0 X140.212 Y135.338
G0 X139.2 Y135.004
G1 F1800 E227.60304
G1 F1125 X139.2 Y85.048 E231.59075
G0 F9000 X140.8 Y87.785
G1 F1125 X140.8 Y132.267 E235.14149
G0 F9000 X142.4 Y130.638
G1 F1125 X142.4 Y89.407 E238.43273
G0 F9000 X144 Y91.736
G1 F1125 X144 Y128.336 E241.3543
G1 F1800 E235.3543
G0 F9000 X144.955 Y128.807
G0 X145.837 Y126.927
G0 X146.086 Y126.197
G0 X146.556 Y124.543
G0 X145.6 Y123.864
G1 F1800 E241.3543
G1 F1125 X145.6 Y114.552 E242.09762
G1 F1800 E236.09762
G0 F9000 X146.635 Y114.293
G0 X146.559 Y106.076
G0 X145.6 Y105.405
G1 F1800 E242.09762
G1 F1125 X145.6 Y96.152 E242.83624
G1 F1800 E236.83624
G0 F9000 X146.635 Y95.893
G0 X146.106 Y93.869
G0 X145.625 Y92.61
G0 X138.328 Y76.516
G0 X137.249 Y74.75
G0 X136.418 Y73.67
G0 X134.964 Y72.165
G0 X133.931 Y71.307
G0 X132.193 Y70.16
G0 X130.988 Y69.542
G0 X129.07 Y68.809
G0 X127.766 Y68.467
G0 X125.681 Y68.16
G0 X124.437 Y68.109
G0 X109.671 Y68.133
G0 X107.589 Y68.379
G0 X106.293 Y68.681
G0 X104.3 Y69.382
G0 X103.092 Y69.962
G0 X101.319 Y71.068
G0 X79.552 Y86.154
G0 X78.645 Y86.909
G0 X77.808 Y87.624
G0 X78.4 Y88.543
G1 F1800 E242.83624
G1 F1125 X78.4 Y131.512 E246.26621
G0 F9000 X76.8 Y129.601
G1 F1125 X76.8 Y90.459 E249.39069
G0 F9000 X75.2 Y93.415
G1 F1125 X75.2 Y126.63 E252.04206
G0 F300 X75.2 Y126.63 Z0.42
G0 F9000 X76.016 Y128.342
;TIME_ELAPSED:182.590512
;LAYER:-6
;TYPE:SUPPORT
G1 F1125 X81.657 Y133.983 E252.51966
G1 X81.554 Y133.923 E252.5268
G1 X80.774 Y133.45 E252.58141
G1 X80.624 Y133.35 E252.5922
G1 X79.909 Y132.839 E252.64482
G1 X79.762 Y132.726 E252.65592
G1 X79.07 Y132.15 E252.70982
G1 X78.958 Y132.049 E252.71885
G1 X78.309 Y131.424 E252.77279
G1 X78.189 Y131.299 E252.78317
G1 X77.585 Y130.628 E252.83722
G1 X77.489 Y130.51 E252.84632
G1 X76.931 Y129.788 E252.90095
G1 X76.827 Y129.64 E252.91178
G1 X76.333 Y128.898 E252.96515
G1 X76.26 Y128.777 E252.97361
G1 F1800 E246.97361
G0 F9000 X75.434 Y129.467
G0 X76.654 Y131.171
G0 X77.55 Y132.172
G0 X79.105 Y133.565
G0 X79.417 Y133.788
G0 X81.01 Y134.84
G0 X81.657 Y133.983
G1 F1800 E252.97361
G1 F1125 X81.67 Y133.991 E252.97452
G1 X82.464 Y134.399 E253.02797
G1 X82.653 Y134.487 E253.04045
G1 X83.456 Y134.828 E253.09268
G1 X83.623 Y134.892 E253.10338
